X:1
T:38
T:38
T:Études enfantines op. 37
T:Henry Lemoine
C:Henry Lemoine
%%score { ( 1 4 ) | ( 2 3 ) }
L:1/8
Q:3/8=77
M:3/8
K:C
V:1 treble nm="Piano" snm="Pno."
V:4 treble 
V:2 bass 
V:3 bass 
V:1
!p!"^Moderato" (!3!c/>B/.A)!^!e- | e.!2!B!^!!5!e- | (ed/c/B/!^!A/- | (A/)!2!^G/!4!B/G/E) | %4
 (!3!c/>B/.A)!^!e- | e.!2!B(!^!!5!e- | e/c/B/A/!2!^G/B/ | A2) z ||!mf! (!2!B/>c/.d)!^!e | %9
 (!4!dc/B/.A) |!f! !^!!2!^G3 | (!^!!4!BA/B/.c) | (!2!B/>c/.d)!^!e | (!4!dc/B/.A) | (a^d)(!>!d | %15
 .e) z z |!p! (!2!^d/>e/.^f) (!^!B | ^g3 | ^f3) | e/^d/e/^f/.e |"_cresc." (!2!^d/>e/.^f) (!^!B | %21
!mf! !5!^g3 | !4!^f>e^d/f/ |!<(! e3-) | (e/^d/!<)!!>(!e/=f/e/d/!>)! |!<(! e3-) | %26
 (e/^d/!<)!!>(!e/f/e/d/!>)! | !1!e3) | z"_dim." (.e'.e' | .e')(.e.e | .e) z z |"_rallentando" z3 | %32
!p!"^in tempo" (!3!c/>B/.A)!^!e- | e.!2!B!^!!5!e- | (ed/c/B/!^!A/- | (A/)!2!^G/!4!B/G/E) | %36
 (!3!c/>B/.A)!^!e- | e.!2!B(!^!!5!e- | e/c/B/A/!2!^G/B/ | A2) z |!<(! ^c/>d/.e.A | %41
!>(! (!4!d2!<)! =c | B/>A/!>)!.^G).B |!p! (!1!A/B/c/B/.A) |!<(! (^c/>d/.e)(.A | %45
 .!5!e)!<)!!>(! .[Bd].[Ac] | (B/c/B/A/^G/!>)!B/ | .A) z!f! (!3!A/.!5!c/) | .!4!B/.A/.^G/.A/.c/.A/ | %49
 !^!F2 (!3!F/.!5!A/) | .!4!=G/.F/.E/.F/.A/.F/ | !^!D2"_dim." (!3!D/.!5!F/) | %52
 .!4!E/.D/.C/.B,/.C/.D/ |"_rallentando" .E z z |!pp! [D^G] z z | !fermata![CA]2 z |] %56
V:2
 !3!!1![A,C]2 !2!!1![A,C] | !5!!3!!1![E,^G,D]2 [E,G,D] | !2!!1![A,C]2 !3!!1![A,C] | %3
 !5!!2!!1![E,B,D]2 [E,B,D] | !3!!1![A,C]2 !2!!1![A,C] | !5!!3!!1![E,^G,D]2 [E,G,D] | %6
 !2!!1![A,C] z !5!!2!!1![E,B,D] | !3!!1![A,C]2 z || !5!!3![E,^G,]3 | (A,2 .C) | %10
 (!3!B,/>!2!C/.!1!D)!^!!2!E | (!^!!1!DC/B,/.A,) | (!3!^G,/>A,/.B,)!^!G, | !3!A,3- | A,2 (B,/A,/ | %15
 ^G,B,)B, | z B,B, | z B,B, | z B,B, | z B,B, | z B,B, | z B,B,- | B,B,B, | z .[E,^G,B,].[E,G,B,] | %24
 !tenuto![E,A,C]3 | z .[E,^G,B,].[E,G,B,] | !tenuto![E,A,C]3 | z .[E,^G,B,].[E,G,B,] | %28
 !tenuto![E,^G,B,]3- | [E,G,B,] z z | z (.E.E | .E)(.E,.E,) | !3!!1![A,C]2 !2!!1![A,C] | %33
 !5!!3!!1![E,^G,D]2 [E,G,D] | !2!!1![A,C]2 !3!!1![A,C] | !5!!2!!1![E,B,D]2 [E,B,D] | %36
 !3!!1![A,C]2 !2!!1![A,C] | !5!!3!!1![E,^G,D]2 [E,G,D] | !2!!1![A,C] z (!5!!2!!1![E,B,D] | %39
 .!3!!1![A,C])[K:treble]!p! .A,.A, | z !^!=G2- | (G!2!F!1!E | !2!D2) D | (!3!C/D/E/D/.C) | %44
 z !^!=G2- | G.!1!F.!1!E | D2 D | !^![A,C] z[K:bass] (!3!A,/.!1!C/) | .!2!B,/.A,/.^G,/.A,/.C/.A,/ | %49
 !^!F,2 (!3!F,/.!1!A,/) | .!2!=G,/.F,/.E,/.F,/.A,/.F,/ | !^!D,2 (!3!D,/.!1!F,/) | %52
 .!2!E,/.D,/.C,/.B,,/.C,/.D,/ | .E, z z | [E,B,] z z | !fermata![A,,E,]2 z |] %56
V:3
 x3 | x3 | x3 | x3 | x3 | x3 | x3 | x3 || x3 | E,3 | x3 | x3 | !5!E,3 | !5!F,3- | F,2 z | E,3 | %16
 [E,A,]3 | [E,^G,]3 | [E,A,]3 | [E,^G,]3 | [E,A,]3 | [E,^G,]3 | [E,A,]3 | x3 | x3 | x3 | x3 | x3 | %28
 x3 | x3 | x3 | x3 | x3 | x3 | x3 | x3 | x3 | x3 | x3 | x[K:treble] x2 | A,3- | A,A,A, | A,2 A, | %43
 A,2- .A, | A,3- | A,A,A, | A,2 A, | x2[K:bass] x | x3 | x3 | x3 | x3 | x3 | x3 | x3 | x3 |] %56
V:4
 x3 | x3 | x3 | x3 | x3 | x3 | x3 | x3 || x3 | x3 | x3 | x3 | x3 | x3 | x3 | x3 | x2 B- | B2 B- | %18
 B2 ^d/B/- | B2 z | x2 B- | B2 B- | B2 x | x3 | x3 | x3 | x3 | x3 | x3 | x3 | x3 | x3 | x3 | x3 | %34
 x3 | x3 | x3 | x3 | x3 | x3 | x3 | x3 | x3 | x3 | x3 | x3 | x3 | x3 | x3 | x3 | x3 | x3 | x3 | %53
 x3 | x3 | x3 |] %56

